**kern
*staff2
*tb96
=1-
*clefG2
*k[b-e-a-]
*met(c)
*M4/4
12ee-/L
.
.
.
.
.
.
.
12gg/
.
.
.
.
.
.
.
12e-\
.
.
.
.
.
.
.
12g\
.
.
.
.
.
.
.
12e-\
.
.
.
.
.
.
.
12gg/J
.
.
.
.
.
.
.
12ee-/L
.
.
.
.
.
.
.
12gg/
.
.
.
.
.
.
.
12e-\
.
.
.
.
.
.
.
12g\
.
.
.
.
.
.
.
12e-\
.
.
.
.
.
.
.
12gg/J
.
.
.
.
.
.
.
=2
12ee-/L
.
.
.
.
.
.
.
12gg/
.
.
.
.
.
.
.
12e-\
.
.
.
.
.
.
.
12g\
.
.
.
.
.
.
.
12e-\
.
.
.
.
.
.
.
12gg/J
.
.
.
.
.
.
.
12ee-/L
.
.
.
.
.
.
.
12gg/
.
.
.
.
.
.
.
12e-\
.
.
.
.
.
.
.
12g\
.
.
.
.
.
.
.
12e-\
.
.
.
.
.
.
.
12gg/J
.
.
.
.
.
.
.
=3
12dd/L
.
.
.
.
.
.
.
12gg/
.
.
.
.
.
.
.
12d\
.
.
.
.
.
.
.
12f\
.
.
.
.
.
.
.
12d\
.
.
.
.
.
.
.
12gg/J
.
.
.
.
.
.
.
12ff/L
.
.
.
.
.
.
.
12gg/
.
.
.
.
.
.
.
12d\
.
.
.
.
.
.
.
12f\
.
.
.
.
.
.
.
12d\
.
.
.
.
.
.
.
12gg/J
.
.
.
.
.
.
.
=4
!!linebreak:original
12ee-/L
.
.
.
.
.
.
.
12gg/
.
.
.
.
.
.
.
12e-\
.
.
.
.
.
.
.
12g\
.
.
.
.
.
.
.
12e-\
.
.
.
.
.
.
.
12gg/J
.
.
.
.
.
.
.
12ee-/L
.
.
.
.
.
.
.
12gg/
.
.
.
.
.
.
.
12e-\
.
.
.
.
.
.
.
12g\
.
.
.
.
.
.
.
12e-\
.
.
.
.
.
.
.
12gg/J
.
.
.
.
.
.
.
=5
12A-/L
.
.
.
.
.
.
.
12c/
.
.
.
.
.
.
.
12e-/
.
.
.
.
.
.
.
12a-/
.
.
.
.
.
.
.
12e-/
.
.
.
.
.
.
.
12c/J
.
.
.
.
.
.
.
12B-/L
.
.
.
.
.
.
.
12e-/
.
.
.
.
.
.
.
12a-/
.
.
.
.
.
.
.
12d/
.
.
.
.
.
.
.
12f/
.
.
.
.
.
.
.
12a-/J
.
.
.
.
.
.
.
=6
12B-/L
.
.
.
.
.
.
.
12e-/
.
.
.
.
.
.
.
12g/
.
.
.
.
.
.
.
12b-/
.
.
.
.
.
.
.
12g/
.
.
.
.
.
.
.
12e-/J
.
.
.
.
.
.
.
12B-/L
.
.
.
.
.
.
.
12e-/
.
.
.
.
.
.
.
12g/
.
.
.
.
.
.
.
12Bn/
.
.
.
.
.
.
.
12e-/
.
.
.
.
.
.
.
12g/J
.
.
.
.
.
.
.
=7
!!linebreak:original
12c/L
.
.
.
.
.
.
.
12e-/
.
.
.
.
.
.
.
12g/
.
.
.
.
.
.
.
12cc/
.
.
.
.
.
.
.
12g/
.
.
.
.
.
.
.
12e-/J
.
.
.
.
.
.
.
12d/L
.
.
.
.
.
.
.
12f/
.
.
.
.
.
.
.
12g/
.
.
.
.
.
.
.
12bn/
.
.
.
.
.
.
.
12g/
.
.
.
.
.
.
.
12f/J
.
.
.
.
.
.
.
=8
12e-/L
.
.
.
.
.
.
.
12g/
.
.
.
.
.
.
.
12cc/
.
.
.
.
.
.
.
12ee-/
.
.
.
.
.
.
.
12cc/
.
.
.
.
.
.
.
12g/J
.
.
.
.
.
.
.
12e-/L
.
.
.
.
.
.
.
12g/
.
.
.
.
.
.
.
12cc/
.
.
.
.
.
.
.
12g/
.
.
.
.
.
.
.
12e-/
.
.
.
.
.
.
.
12c/J
.
.
.
.
.
.
.
=9
12A-/L
.
.
.
.
.
.
.
12c/
.
.
.
.
.
.
.
12f/
.
.
.
.
.
.
.
12a-/
.
.
.
.
.
.
.
12f/
.
.
.
.
.
.
.
12c/J
.
.
.
.
.
.
.
12A-/L
.
.
.
.
.
.
.
12c/
.
.
.
.
.
.
.
12f/
.
.
.
.
.
.
.
12a-/
.
.
.
.
.
.
.
12f/
.
.
.
.
.
.
.
12c/J
.
.
.
.
.
.
.
=10
!!linebreak:original
12ee-/L
.
.
.
.
.
.
.
12gg/
.
.
.
.
.
.
.
12e-\
.
.
.
.
.
.
.
12g\
.
.
.
.
.
.
.
12e-\
.
.
.
.
.
.
.
12gg/J
.
.
.
.
.
.
.
12ee-/L
.
.
.
.
.
.
.
12gg/
.
.
.
.
.
.
.
12e-\
.
.
.
.
.
.
.
12g\
.
.
.
.
.
.
.
12e-\
.
.
.
.
.
.
.
12gg/J
.
.
.
.
.
.
.
=11
12dd/L
.
.
.
.
.
.
.
12gg/
.
.
.
.
.
.
.
12d\
.
.
.
.
.
.
.
12f\
.
.
.
.
.
.
.
12d\
.
.
.
.
.
.
.
12gg/J
.
.
.
.
.
.
.
12ff/L
.
.
.
.
.
.
.
12gg/
.
.
.
.
.
.
.
12d\
.
.
.
.
.
.
.
12f\
.
.
.
.
.
.
.
12d\
.
.
.
.
.
.
.
12gg/J
.
.
.
.
.
.
.
=12
(12ee-/L
.
.
.
.
.
.
.
12gg/)
.
.
.
.
.
.
.
12e-\
.
.
.
.
.
.
.
12g\
.
.
.
.
.
.
.
12e-\
.
.
.
.
.
.
.
12d-\J
.
.
.
.
.
.
.
12c/L
.
.
.
.
.
.
.
12e-/
.
.
.
.
.
.
.
12a-/
.
.
.
.
.
.
.
12f/
.
.
.
.
.
.
.
12d-/
.
.
.
.
.
.
.
12c/J
.
.
.
.
.
.
.
=13
!!linebreak:original
8B-/L
.
.
.
.
.
.
.
.
.
.
.
8e-/
.
.
.
.
.
.
.
.
.
.
.
8g/
.
.
.
.
.
.
.
.
.
.
.
8f/
.
.
.
.
.
.
.
.
.
.
.
8d/
.
.
.
.
.
.
.
.
.
.
.
8A-/J
.
.
.
.
.
.
.
.
.
.
.
4r
.
.
.
.
.
.
.
.
.
.
.
.
.
.
.
.
.
.
.
.
.
.
.
=14
12ee-/L
.
.
.
.
.
.
.
12gg/
.
.
.
.
.
.
.
12e-\
.
.
.
.
.
.
.
12g\
.
.
.
.
.
.
.
12e-\
.
.
.
.
.
.
.
12gg/J
.
.
.
.
.
.
.
12ee-/L
.
.
.
.
.
.
.
12gg/
.
.
.
.
.
.
.
12e-\
.
.
.
.
.
.
.
12g\
.
.
.
.
.
.
.
12e-\
.
.
.
.
.
.
.
12gg/J
.
.
.
.
.
.
.
=15
12dd/L
.
.
.
.
.
.
.
12gg/
.
.
.
.
.
.
.
12d\
.
.
.
.
.
.
.
12f\
.
.
.
.
.
.
.
12d\
.
.
.
.
.
.
.
12gg/J
.
.
.
.
.
.
.
12dd/L
.
.
.
.
.
.
.
12gg/
.
.
.
.
.
.
.
12d\
.
.
.
.
.
.
.
12f\
.
.
.
.
.
.
.
12d\
.
.
.
.
.
.
.
12gg/J
.
.
.
.
.
.
.
=16
!!linebreak:original
12ee-/L
.
.
.
.
.
.
.
12gg/
.
.
.
.
.
.
.
12e-\
.
.
.
.
.
.
.
12g\
.
.
.
.
.
.
.
12e-\
.
.
.
.
.
.
.
12gg/J
.
.
.
.
.
.
.
12ee-/L
.
.
.
.
.
.
.
12gg/
.
.
.
.
.
.
.
12e-\
.
.
.
.
.
.
.
12g\
.
.
.
.
.
.
.
12e-\
.
.
.
.
.
.
.
12gg/J
.
.
.
.
.
.
.
=17
12ff/L
.
.
.
.
.
.
.
12aa-/
.
.
.
.
.
.
.
12e-\
.
.
.
.
.
.
.
12a-\
.
.
.
.
.
.
.
12e-\
.
.
.
.
.
.
.
12c\J
.
.
.
.
.
.
.
12gg/L
.
.
.
.
.
.
.
12ccc~/
.
.
.
.
.
.
.
12g\
.
.
.
.
.
.
.
12gg/
.
.
.
.
.
.
.
12bb-/
.
.
.
.
.
.
.
12f\J
.
.
.
.
.
.
.
=18
12ee-/L
.
.
.
.
.
.
.
12gg/
.
.
.
.
.
.
.
12e-\
.
.
.
.
.
.
.
12g\
.
.
.
.
.
.
.
12e-\
.
.
.
.
.
.
.
12gg/J
.
.
.
.
.
.
.
12ggn/L
.
.
.
.
.
.
.
12d\
.
.
.
.
.
.
.
12f\
.
.
.
.
.
.
.
12a-\
.
.
.
.
.
.
.
12f\
.
.
.
.
.
.
.
12d\J
.
.
.
.
.
.
.
=19
!!linebreak:original
8r
.
.
.
.
.
.
.
.
.
.
.
8c/L
.
.
.
.
.
.
.
.
.
.
.
8e-/
.
.
.
.
.
.
.
.
.
.
.
8g/
.
.
.
.
.
.
.
.
.
.
.
8e-/
.
.
.
.
.
.
.
.
.
.
.
8c/J
.
.
.
.
.
.
.
.
.
.
.
8r
.
.
.
.
.
.
.
.
.
.
.
8d/L
.
.
.
.
.
.
.
.
.
.
.
=20
4e-/ 4b-/ 4ee-/
.
.
.
.
.
.
.
.
.
.
.
.
.
.
.
.
.
.
.
.
.
.
.
8r
.
.
.
.
.
.
.
.
.
.
.
8a-\ 8b-\ 8dd\
.
.
.
.
.
.
.
.
.
.
.
4g\ 4b-\ 4ee-\
.
.
.
.
.
.
.
.
.
.
.
.
.
.
.
.
.
.
.
.
.
.
.
4r
.
.
.
.
.
.
.
.
.
.
.
.
.
.
.
.
.
.
.
.
.
.
.
=21
12ff/L
.
.
.
.
.
.
.
12aa-/
.
.
.
.
.
.
.
12e-\
.
.
.
.
.
.
.
12f\
.
.
.
.
.
.
.
12e-\
.
.
.
.
.
.
.
8c\J
.
.
.
.
.
.
.
.
.
.
.
12ff/L
.
.
.
.
.
.
.
12aa-/
.
.
.
.
.
.
.
12e-\
.
.
.
.
.
.
.
12f\
.
.
.
.
.
.
.
12e-\
.
.
.
.
.
.
.
32r
.
.
=22
!!linebreak:original
12B-/L
.
.
.
.
.
.
.
12e-/
.
.
.
.
.
.
.
12g/
.
.
.
.
.
.
.
12b-/
.
.
.
.
.
.
.
12g/
.
.
.
.
.
.
.
12e-/J
.
.
.
.
.
.
.
12B-/L
.
.
.
.
.
.
.
12d/
.
.
.
.
.
.
.
12f/
.
.
.
.
.
.
.
12a-/
.
.
.
.
.
.
.
12f/
.
.
.
.
.
.
.
12d/J
.
.
.
.
.
.
.
=23
4B-/ 4g/
.
.
.
.
.
.
.
.
.
.
.
.
.
.
.
.
.
.
.
.
.
.
.
4r
.
.
.
.
.
.
.
.
.
.
.
.
.
.
.
.
.
.
.
.
.
.
.
4r
.
.
.
.
.
.
.
.
.
.
.
.
.
.
.
.
.
.
.
.
.
.
.
4r
.
.
.
.
.
.
.
.
.
.
.
.
.
.
.
.
.
.
.
.
.
.
.
=24||
!!linebreak:original
8ee-/L
.
.
.
.
.
.
.
.
.
.
.
8aa-/
.
.
.
.
.
.
.
.
.
.
.
8e-\
.
.
.
.
.
.
.
.
.
.
.
8.c'\
.
.
.
.
.
.
.
.
.
.
.
.
.
.
.
.
.
8ee-/J
.
.
.
.
.
.
.
.
.
.
.
8en/L
.
.
.
.
.
.
.
.
.
.
.
8c/
.
.
.
.
.
.
.
.
.
.
.
16r
.
.
.
.
.
=25
8r
.
.
.
.
.
.
.
.
.
.
.
8c/L
.
.
.
.
.
.
.
.
.
.
.
8e-/
.
.
.
.
.
.
.
.
.
.
.
8g/
.
.
.
.
.
.
.
.
.
.
.
8e-/
.
.
.
.
.
.
.
.
.
.
.
8c/J
.
.
.
.
.
.
.
.
.
.
.
8r
.
.
.
.
.
.
.
.
.
.
.
8c/L
.
.
.
.
.
.
.
.
.
.
.
=26
(8r
.
.
.
.
.
.
.
.
.
.
.
8c/L)
.
.
.
.
.
.
.
.
.
.
.
8e-/
.
.
.
.
.
.
.
.
.
.
.
8g/
.
.
.
.
.
.
.
.
.
.
.
8e-/
.
.
.
.
.
.
.
.
.
.
.
8c/J
.
.
.
.
.
.
.
.
.
.
.
8r
.
.
.
.
.
.
.
.
.
.
.
8Bn/L
.
.
.
.
.
.
.
.
.
.
.
=27
!!linebreak:original
8r
.
.
.
.
.
.
.
.
.
.
.
8Bn/L
.
.
.
.
.
.
.
.
.
.
.
8f/
.
.
.
.
.
.
.
.
.
.
.
8g/
.
.
.
.
.
.
.
.
.
.
.
8f/
.
.
.
.
.
.
.
.
.
.
.
8B/J
.
.
.
.
.
.
.
.
.
.
.
8r
.
.
.
.
.
.
.
.
.
.
.
8c/L
.
.
.
.
.
.
.
.
.
.
.
=28
8r
.
.
.
.
.
.
.
.
.
.
.
8c/L
.
.
.
.
.
.
.
.
.
.
.
8f/
.
.
.
.
.
.
.
.
.
.
.
8a-/
.
.
.
.
.
.
.
.
.
.
.
8f/
.
.
.
.
.
.
.
.
.
.
.
8c/J
.
.
.
.
.
.
.
.
.
.
.
8g/L
.
.
.
.
.
.
.
.
.
.
.
8d/
.
.
.
.
.
.
.
.
.
.
.
=29
8r
.
.
.
.
.
.
.
.
.
.
.
8c/L
.
.
.
.
.
.
.
.
.
.
.
8e-/
.
.
.
.
.
.
.
.
.
.
.
8g/
.
.
.
.
.
.
.
.
.
.
.
8e-/
.
.
.
.
.
.
.
.
.
.
.
8c/J
.
.
.
.
.
.
.
.
.
.
.
8r
.
.
.
.
.
.
.
.
.
.
.
8c/L
.
.
.
.
.
.
.
.
.
.
.
=30
!!linebreak:original
8r
.
.
.
.
.
.
.
.
.
.
.
8c/L
.
.
.
.
.
.
.
.
.
.
.
8en/
.
.
.
.
.
.
.
.
.
.
.
8g/
.
.
.
.
.
.
.
.
.
.
.
8e/
.
.
.
.
.
.
.
.
.
.
.
8c/J
.
.
.
.
.
.
.
.
.
.
.
8r
.
.
.
.
.
.
.
.
.
.
.
8c/L
.
.
.
.
.
.
.
.
.
.
.
=31
8r
.
.
.
.
.
.
.
.
.
.
.
8c/L
.
.
.
.
.
.
.
.
.
.
.
8f/
.
.
.
.
.
.
.
.
.
.
.
8a-/
.
.
.
.
.
.
.
.
.
.
.
8f/
.
.
.
.
.
.
.
.
.
.
.
8c/J
.
.
.
.
.
.
.
.
.
.
.
8r
.
.
.
.
.
.
.
.
.
.
.
8d-/L
.
.
.
.
.
.
.
.
.
.
.
=32
12a-/L
.
.
.
.
.
.
.
12f/
.
.
.
.
.
.
.
12c/
.
.
.
.
.
.
.
12b-/
.
.
.
.
.
.
.
12f/
.
.
.
.
.
.
.
12B-/J
.
.
.
.
.
.
.
12a-/L
.
.
.
.
.
.
.
12f/
.
.
.
.
.
.
.
12c/
.
.
.
.
.
.
.
12g/
.
.
.
.
.
.
.
12en/
.
.
.
.
.
.
.
12c/J
.
.
.
.
.
.
.
=33
!!linebreak:original
8r
.
.
.
.
.
.
.
.
.
.
.
8c/L
.
.
.
.
.
.
.
.
.
.
.
8en/
.
.
.
.
.
.
.
.
.
.
.
8b-/
.
.
.
.
.
.
.
.
.
.
.
8e/
.
.
.
.
.
.
.
.
.
.
.
8c/J
.
.
.
.
.
.
.
.
.
.
.
8a-/L
.
.
.
.
.
.
.
.
.
.
.
8f/
.
.
.
.
.
.
.
.
.
.
.
=34
8r
.
.
.
.
.
.
.
.
.
.
.
8c/L
.
.
.
.
.
.
.
.
.
.
.
8f/
.
.
.
.
.
.
.
.
.
.
.
8cc/
.
.
.
.
.
.
.
.
.
.
.
8f/
.
.
.
.
.
.
.
.
.
.
.
8c/J
.
.
.
.
.
.
.
.
.
.
.
8r
.
.
.
.
.
.
.
.
.
.
.
8d/L
.
.
.
.
.
.
.
.
.
.
.
=35
8r
.
.
.
.
.
.
.
.
.
.
.
8B-/L
.
.
.
.
.
.
.
.
.
.
.
8e-/
.
.
.
.
.
.
.
.
.
.
.
8b-/
.
.
.
.
.
.
.
.
.
.
.
8e-/
.
.
.
.
.
.
.
.
.
.
.
8B-/J
.
.
.
.
.
.
.
.
.
.
.
8r
.
.
.
.
.
.
.
.
.
.
.
8c/L
.
.
.
.
.
.
.
.
.
.
.
=36
!!linebreak:original
8r
.
.
.
.
.
.
.
.
.
.
.
8B-/L
.
.
.
.
.
.
.
.
.
.
.
8e-/
.
.
.
.
.
.
.
.
.
.
.
8g/
.
.
.
.
.
.
.
.
.
.
.
8e-/
.
.
.
.
.
.
.
.
.
.
.
8B-/J
.
.
.
.
.
.
.
.
.
.
.
8r
.
.
.
.
.
.
.
.
.
.
.
8B-/L
.
.
.
.
.
.
.
.
.
.
.
=37
12g/L
.
.
.
.
.
.
.
12b-/
.
.
.
.
.
.
.
12a-/
.
.
.
.
.
.
.
12g/
.
.
.
.
.
.
.
12f/
.
.
.
.
.
.
.
12e-/J
.
.
.
.
.
.
.
12d/L
.
.
.
.
.
.
.
12f/
.
.
.
.
.
.
.
12e-/
.
.
.
.
.
.
.
12c/
.
.
.
.
.
.
.
12d-/
.
.
.
.
.
.
.
12B-/J
.
.
.
.
.
.
.
=38||
12A-/L
.
.
.
.
.
.
.
12c/
.
.
.
.
.
.
.
12e-/
.
.
.
.
.
.
.
12a-/
.
.
.
.
.
.
.
12e-/
.
.
.
.
.
.
.
12c/J
.
.
.
.
.
.
.
12A-/L
.
.
.
.
.
.
.
12c/
.
.
.
.
.
.
.
12e-/
.
.
.
.
.
.
.
12a-/
.
.
.
.
.
.
.
12e-/
.
.
.
.
.
.
.
12c/J
.
.
.
.
.
.
.
=39
!!linebreak:original
12A-/L
.
.
.
.
.
.
.
12c/
.
.
.
.
.
.
.
12f/
.
.
.
.
.
.
.
12a-/
.
.
.
.
.
.
.
12f/
.
.
.
.
.
.
.
12c/J
.
.
.
.
.
.
.
12A-/L
.
.
.
.
.
.
.
12c/
.
.
.
.
.
.
.
12f/
.
.
.
.
.
.
.
12a-/
.
.
.
.
.
.
.
12f/
.
.
.
.
.
.
.
12c/J
.
.
.
.
.
.
.
=40
12B-/L
.
.
.
.
.
.
.
12d-/
.
.
.
.
.
.
.
12f/
.
.
.
.
.
.
.
12B-/
.
.
.
.
.
.
.
12dn/
.
.
.
.
.
.
.
12f/J
.
.
.
.
.
.
.
12B-/L
.
.
.
.
.
.
.
12e-/
.
.
.
.
.
.
.
12g/
.
.
.
.
.
.
.
12B-/
.
.
.
.
.
.
.
12d/
.
.
.
.
.
.
.
12a-/J
.
.
.
.
.
.
.
=41
12B-/L
.
.
.
.
.
.
.
12d/
.
.
.
.
.
.
.
12e-/
.
.
.
.
.
.
.
12g/
.
.
.
.
.
.
.
12e-/
.
.
.
.
.
.
.
12d/J
.
.
.
.
.
.
.
12B-/L
.
.
.
.
.
.
.
12d/
.
.
.
.
.
.
.
12e-/
.
.
.
.
.
.
.
12g/
.
.
.
.
.
.
.
12e-/
.
.
.
.
.
.
.
12d/J
.
.
.
.
.
.
.
=42
!!linebreak:original
12A-/L
.
.
.
.
.
.
.
12e-/
.
.
.
.
.
.
.
12a-/
.
.
.
.
.
.
.
12A-/
.
.
.
.
.
.
.
12e-/
.
.
.
.
.
.
.
12g-/J
.
.
.
.
.
.
.
12A-/L
.
.
.
.
.
.
.
12d-/
.
.
.
.
.
.
.
12f/
.
.
.
.
.
.
.
12B-/
.
.
.
.
.
.
.
12d-/
.
.
.
.
.
.
.
12f/J
.
.
.
.
.
.
.
=43
12B-/L
.
.
.
.
.
.
.
12d-/
.
.
.
.
.
.
.
12f/
.
.
.
.
.
.
.
12a-/
.
.
.
.
.
.
.
12f/
.
.
.
.
.
.
.
12d-/J
.
.
.
.
.
.
.
12B-/L
.
.
.
.
.
.
.
12e-/
.
.
.
.
.
.
.
12g/
.
.
.
.
.
.
.
12b-/
.
.
.
.
.
.
.
12g/
.
.
.
.
.
.
.
12e-/J
.
.
.
.
.
.
.
=44
12d-/L
.
.
.
.
.
.
.
12e-/
.
.
.
.
.
.
.
12g/
.
.
.
.
.
.
.
12b-/
.
.
.
.
.
.
.
12g/
.
.
.
.
.
.
.
12e-/J
.
.
.
.
.
.
.
12d-/L
.
.
.
.
.
.
.
12e-/
.
.
.
.
.
.
.
12g/
.
.
.
.
.
.
.
12b-/
.
.
.
.
.
.
.
12g/
.
.
.
.
.
.
.
12e-/J
.
.
.
.
.
.
.
=45
!!linebreak:original
12c/L
.
.
.
.
.
.
.
12e-/
.
.
.
.
.
.
.
12a-/
.
.
.
.
.
.
.
12cc/
.
.
.
.
.
.
.
12a-/
.
.
.
.
.
.
.
12e-/J
.
.
.
.
.
.
.
12c/L
.
.
.
.
.
.
.
12e-/
.
.
.
.
.
.
.
12a-/
.
.
.
.
.
.
.
12cc/
.
.
.
.
.
.
.
12a-/
.
.
.
.
.
.
.
12e-/J
.
.
.
.
.
.
.
=46
12e-/L
.
.
.
.
.
.
.
12g-/
.
.
.
.
.
.
.
12a-/
.
.
.
.
.
.
.
12cc/
.
.
.
.
.
.
.
12a-/
.
.
.
.
.
.
.
12g-/J
.
.
.
.
.
.
.
12e-/L
.
.
.
.
.
.
.
12g-/
.
.
.
.
.
.
.
12a-/
.
.
.
.
.
.
.
12cc/
.
.
.
.
.
.
.
12a-/
.
.
.
.
.
.
.
12g-/J
.
.
.
.
.
.
.
=47
12d-/L
.
.
.
.
.
.
.
12f/
.
.
.
.
.
.
.
12a-/
.
.
.
.
.
.
.
12dd-/
.
.
.
.
.
.
.
12a-/
.
.
.
.
.
.
.
12f/J
.
.
.
.
.
.
.
12d-/L
.
.
.
.
.
.
.
12f/
.
.
.
.
.
.
.
12a-/
.
.
.
.
.
.
.
12dd-/
.
.
.
.
.
.
.
12a-/
.
.
.
.
.
.
.
12f/J
.
.
.
.
.
.
.
=48
!!linebreak:original
12d-/L
.
.
.
.
.
.
.
12f/
.
.
.
.
.
.
.
12b-/
.
.
.
.
.
.
.
12dd-/
.
.
.
.
.
.
.
12b-/
.
.
.
.
.
.
.
12f/J
.
.
.
.
.
.
.
12d-/L
.
.
.
.
.
.
.
12f/
.
.
.
.
.
.
.
12b-/
.
.
.
.
.
.
.
12dd-/
.
.
.
.
.
.
.
12b-/
.
.
.
.
.
.
.
12f/J
.
.
.
.
.
.
.
=49
12B-/L
.
.
.
.
.
.
.
12e-/
.
.
.
.
.
.
.
12g/
.
.
.
.
.
.
.
12B-/
.
.
.
.
.
.
.
12e-/
.
.
.
.
.
.
.
12g/J
.
.
.
.
.
.
.
12A-/L
.
.
.
.
.
.
.
12e-/
.
.
.
.
.
.
.
12a-/
.
.
.
.
.
.
.
12d-/
.
.
.
.
.
.
.
12f/
.
.
.
.
.
.
.
12a-/J
.
.
.
.
.
.
.
=50
12c/L
.
.
.
.
.
.
.
12e-/
.
.
.
.
.
.
.
12a-/
.
.
.
.
.
.
.
12cc/
.
.
.
.
.
.
.
12a-/
.
.
.
.
.
.
.
12e-/J
.
.
.
.
.
.
.
12d-/L
.
.
.
.
.
.
.
12e-/
.
.
.
.
.
.
.
12g/
.
.
.
.
.
.
.
12b-/
.
.
.
.
.
.
.
12g/
.
.
.
.
.
.
.
12e-/J
.
.
.
.
.
.
.
=51
!!linebreak:original
12c/L
.
.
.
.
.
.
.
12e-/
.
.
.
.
.
.
.
12a-/
.
.
.
.
.
.
.
12cc/
.
.
.
.
.
.
.
12a-/
.
.
.
.
.
.
.
12e-/J
.
.
.
.
.
.
.
12c-/L
.
.
.
.
.
.
.
12e-/
.
.
.
.
.
.
.
12a-/
.
.
.
.
.
.
.
12cc-/
.
.
.
.
.
.
.
12a-/
.
.
.
.
.
.
.
12e-/J
.
.
.
.
.
.
.
=52
12B-/L
.
.
.
.
.
.
.
12e-/
.
.
.
.
.
.
.
12a-/
.
.
.
.
.
.
.
12b-/
.
.
.
.
.
.
.
12a-/
.
.
.
.
.
.
.
12e-/J
.
.
.
.
.
.
.
12B-/L
.
.
.
.
.
.
.
12d/
.
.
.
.
.
.
.
12a-/
.
.
.
.
.
.
.
12b-/
.
.
.
.
.
.
.
12a-/
.
.
.
.
.
.
.
12d/J
.
.
.
.
.
.
.
=53
12ee-/L
.
.
.
.
.
.
.
12gg/
.
.
.
.
.
.
.
12e-\
.
.
.
.
.
.
.
12g\
.
.
.
.
.
.
.
12e-\
.
.
.
.
.
.
.
12gg/J
.
.
.
.
.
.
.
12ee-/L
.
.
.
.
.
.
.
12gg/
.
.
.
.
.
.
.
12e-\
.
.
.
.
.
.
.
12g\
.
.
.
.
.
.
.
12e-\
.
.
.
.
.
.
.
12gg/J
.
.
.
.
.
.
.
=54
!!linebreak:original
12ee-/L
.
.
.
.
.
.
.
12gg/
.
.
.
.
.
.
.
12e-\
.
.
.
.
.
.
.
12g\
.
.
.
.
.
.
.
12e-\
.
.
.
.
.
.
.
12gg/J
.
.
.
.
.
.
.
12dd/L
.
.
.
.
.
.
.
12gg/
.
.
.
.
.
.
.
12d\
.
.
.
.
.
.
.
12f\
.
.
.
.
.
.
.
12d\
.
.
.
.
.
.
.
12gg/J
.
.
.
.
.
.
.
=55
12ee-/L
.
.
.
.
.
.
.
12gg/
.
.
.
.
.
.
.
12e-\
.
.
.
.
.
.
.
12g\
.
.
.
.
.
.
.
12e-\
.
.
.
.
.
.
.
12gg/J
.
.
.
.
.
.
.
12ee-/L
.
.
.
.
.
.
.
12gg/
.
.
.
.
.
.
.
12e-\
.
.
.
.
.
.
.
12g\
.
.
.
.
.
.
.
12e-\
.
.
.
.
.
.
.
12gg/J
.
.
.
.
.
.
.
=56
12ff/L
.
.
.
.
.
.
.
12aa-/
.
.
.
.
.
.
.
12e-\
.
.
.
.
.
.
.
12a-\
.
.
.
.
.
.
.
12e-\
.
.
.
.
.
.
.
12c\J
.
.
.
.
.
.
.
12B-/L
.
.
.
.
.
.
.
12f/
.
.
.
.
.
.
.
12a-/
.
.
.
.
.
.
.
12d/
.
.
.
.
.
.
.
12f/
.
.
.
.
.
.
.
12a-/J
.
.
.
.
.
.
.
=57
!!linebreak:original
12B-/L
.
.
.
.
.
.
.
12e-/
.
.
.
.
.
.
.
12g/
.
.
.
.
.
.
.
12b-/
.
.
.
.
.
.
.
12g/
.
.
.
.
.
.
.
12e-/J
.
.
.
.
.
.
.
12B-/L
.
.
.
.
.
.
.
12e-/
.
.
.
.
.
.
.
12g/
.
.
.
.
.
.
.
12b-/
.
.
.
.
.
.
.
12g/
.
.
.
.
.
.
.
12e-/J
.
.
.
.
.
.
.
=58
12c/L
.
.
.
.
.
.
.
12e-/
.
.
.
.
.
.
.
12g/
.
.
.
.
.
.
.
12cc/
.
.
.
.
.
.
.
12g/
.
.
.
.
.
.
.
12e-/J
.
.
.
.
.
.
.
12c/L
.
.
.
.
.
.
.
12e-/
.
.
.
.
.
.
.
12g/
.
.
.
.
.
.
.
12cc/
.
.
.
.
.
.
.
12g/
.
.
.
.
.
.
.
12e-/J
.
.
.
.
.
.
.
=59
12c/L
.
.
.
.
.
.
.
12e-/
.
.
.
.
.
.
.
12g/
.
.
.
.
.
.
.
12cc/
.
.
.
.
.
.
.
12g/
.
.
.
.
.
.
.
12e-/J
.
.
.
.
.
.
.
12c/L
.
.
.
.
.
.
.
12e-/
.
.
.
.
.
.
.
12g/
.
.
.
.
.
.
.
12cc/
.
.
.
.
.
.
.
12g/
.
.
.
.
.
.
.
12e-/J
.
.
.
.
.
.
.
=60
!!linebreak:original
12B-/L
.
.
.
.
.
.
.
12f/
.
.
.
.
.
.
.
12b-/
.
.
.
.
.
.
.
12dd/
.
.
.
.
.
.
.
12b-/
.
.
.
.
.
.
.
12f/J
.
.
.
.
.
.
.
12B-/L
.
.
.
.
.
.
.
12f/
.
.
.
.
.
.
.
12b-/
.
.
.
.
.
.
.
12dd/
.
.
.
.
.
.
.
12b-/
.
.
.
.
.
.
.
12f/J
.
.
.
.
.
.
.
=61
12e-/L
.
.
.
.
.
.
.
12g/
.
.
.
.
.
.
.
12b-/
.
.
.
.
.
.
.
12ee-/
.
.
.
.
.
.
.
12b-/
.
.
.
.
.
.
.
12g/J
.
.
.
.
.
.
.
12e-/L
.
.
.
.
.
.
.
12g/
.
.
.
.
.
.
.
12b-/
.
.
.
.
.
.
.
12ee-/
.
.
.
.
.
.
.
12b-/
.
.
.
.
.
.
.
12g/J
.
.
.
.
.
.
.
=62
12ee-/L
.
.
.
.
.
.
.
12gg/
.
.
.
.
.
.
.
12e-\
.
.
.
.
.
.
.
12g\
.
.
.
.
.
.
.
12e-\
.
.
.
.
.
.
.
12gg/J
.
.
.
.
.
.
.
12ee-/L
.
.
.
.
.
.
.
12gg/
.
.
.
.
.
.
.
12e-\
.
.
.
.
.
.
.
12g\
.
.
.
.
.
.
.
12e-\
.
.
.
.
.
.
.
12gg/J
.
.
.
.
.
.
.
=63
!!linebreak:original
12ff/L
.
.
.
.
.
.
.
12aa-/
.
.
.
.
.
.
.
12e-\
.
.
.
.
.
.
.
12a-\
.
.
.
.
.
.
.
12e-\
.
.
.
.
.
.
.
12c\J
.
.
.
.
.
.
.
12ff/L
.
.
.
.
.
.
.
12aa-/
.
.
.
.
.
.
.
12e-\
.
.
.
.
.
.
.
12a-\
.
.
.
.
.
.
.
12e-\
.
.
.
.
.
.
.
12c\J
.
.
.
.
.
.
.
=64
12ee-/L
.
.
.
.
.
.
.
12gg/
.
.
.
.
.
.
.
12e-\
.
.
.
.
.
.
.
12g\
.
.
.
.
.
.
.
12e-\
.
.
.
.
.
.
.
12gg/J
.
.
.
.
.
.
.
12ee-/L
.
.
.
.
.
.
.
12gg/
.
.
.
.
.
.
.
12e-\
.
.
.
.
.
.
.
12g\
.
.
.
.
.
.
.
12e-\
.
.
.
.
.
.
.
12gg/J
.
.
.
.
.
.
.
=65
12ff/L
.
.
.
.
.
.
.
12gg/
.
.
.
.
.
.
.
12d\
.
.
.
.
.
.
.
12f\
.
.
.
.
.
.
.
12d\
.
.
.
.
.
.
.
12B-\J
.
.
.
.
.
.
.
12ff/L
.
.
.
.
.
.
.
12gg/
.
.
.
.
.
.
.
12d\
.
.
.
.
.
.
.
12f\
.
.
.
.
.
.
.
12d\
.
.
.
.
.
.
.
12B-\J
.
.
.
.
.
.
.
=66
!!linebreak:original
12ee-/L
.
.
.
.
.
.
.
12gg/
.
.
.
.
.
.
.
12e-\
.
.
.
.
.
.
.
12g\
.
.
.
.
.
.
.
12e-\
.
.
.
.
.
.
.
12d-\J
.
.
.
.
.
.
.
12c/L
.
.
.
.
.
.
.
12e-/
.
.
.
.
.
.
.
12a-/
.
.
.
.
.
.
.
12f/
.
.
.
.
.
.
.
12d-/
.
.
.
.
.
.
.
12c/J
.
.
.
.
.
.
.
=67
12B-/L
.
.
.
.
.
.
.
12e-/
.
.
.
.
.
.
.
12g/
.
.
.
.
.
.
.
12f/
.
.
.
.
.
.
.
12d/
.
.
.
.
.
.
.
12A-/J
.
.
.
.
.
.
.
12ee-/L
.
.
.
.
.
.
.
12gg/
.
.
.
.
.
.
.
12e-\
.
.
.
.
.
.
.
12dd/
.
.
.
.
.
.
.
12ff/
.
.
.
.
.
.
.
12d\J
.
.
.
.
.
.
.
=68
4E-/ 4B-/ 4e-/
.
.
.
.
.
.
.
.
.
.
.
.
.
.
.
.
.
.
.
.
.
.
.
4r
.
.
.
.
.
.
.
.
.
.
.
.
.
.
.
.
.
.
.
.
.
.
.
4E-/ 4B-/ 4e-/
.
.
.
.
.
.
.
.
.
.
.
.
.
.
.
.
.
.
.
.
.
.
.
4r
.
.
.
.
.
.
.
.
.
.
.
.
.
.
.
.
.
.
.
.
.
.
.
=69
1E-;/ 1B-;/ 1e-;/
.
.
.
.
.
.
.
.
.
.
.
.
.
.
.
.
.
.
.
.
.
.
.
.
.
.
.
.
.
.
.
.
.
.
.
.
.
.
.
.
.
.
.
.
.
.
.
.
.
.
.
.
.
.
.
.
.
.
.
.
.
.
.
.
.
.
.
.
.
.
.
.
.
.
.
.
.
.
.
.
.
.
.
.
.
.
.
.
.
.
.
.
.
.
.
==
*-
